epam-assets/icon-sources/18/database-remove.svg

<svg width="18" height="18" viewBox="0 0 18 18" fill="none" xmlns="http://www.w3.org/2000/svg">
<g id="18/database-remove">
<path id="icon" fill-rule="evenodd" clip-rule="evenodd" d="M13.3917 13.5L12 12.1083L12.8583 11.25L14.25 12.6417L15.6417 11.25L16.5 12.1083L15.1083 13.5L16.5 14.8917L15.6417 15.75L14.25 14.3583L12.8583 15.75L12 14.8917L13.3917 13.5ZM8.25 11.25C4.935 11.25 2.25 9.9075 2.25 8.25V6C2.25 7.6575 4.935 9 8.25 9C11.565 9 14.25 7.6575 14.25 6V8.25C14.25 8.51043 14.25 9 14.25 9C12.7539 9.06243 11.2557 9.85927 10.4844 11.0353C9.7939 11.1738 9.03983 11.25 8.25 11.25ZM9.83115 12.6448C9.77789 12.9217 9.75 13.2076 9.75 13.5C9.75 13.9799 9.82512 14.4422 9.96423 14.8759C9.42112 14.9566 8.84573 15 8.25 15C4.935 15 2.25 13.6575 2.25 12V9.75C2.25 11.4075 4.935 12.75 8.25 12.75C8.79731 12.75 9.32744 12.7134 9.83115 12.6448ZM8.25 1.5C11.565 1.5 14.25 2.8425 14.25 4.5C14.25 6.1575 11.565 7.5 8.25 7.5C4.935 7.5 2.25 6.1575 2.25 4.5C2.25 2.8425 4.935 1.5 8.25 1.5Z" fill="#6C6F80"/>
</g>
</svg>

<svg xmlns="http://www.w3.org/2000/svg" width="18" height="18" fill="none" viewBox="0 0 18 18">
  <path fill="#6C6F80" fill-rule="evenodd" d="M13.392 13.5 12 12.108l.858-.858 1.392 1.392 1.392-1.392.858.858-1.392 1.392 1.392 1.392-.858.858-1.392-1.392-1.392 1.392-.858-.858 1.392-1.392ZM8.25 11.25c-3.315 0-6-1.342-6-3V6c0 1.657 2.685 3 6 3s6-1.343 6-3v3c-1.496.062-2.994.86-3.766 2.035-.69.139-1.444.215-2.234.215Zm1.581 1.395a4.524 4.524 0 0 0 .133 2.23c-.543.082-1.118.125-1.714.125-3.315 0-6-1.342-6-3V9.75c0 1.658 2.685 3 6 3 .547 0 1.077-.037 1.581-.105ZM8.25 1.5c3.315 0 6 1.342 6 3 0 1.657-2.685 3-6 3s-6-1.343-6-3c0-1.658 2.685-3 6-3Z" clip-rule="evenodd"/>
</svg>
